Newaita-dark/apps/24/com.github.plugarut.pwned-checker.svg

<svg height="24" viewBox="0 0 24 24" width="24" xmlns="http://www.w3.org/2000/svg" xmlns:xlink="http://www.w3.org/1999/xlink"><linearGradient id="a"><stop offset="0" stop-opacity=".313726"/><stop offset=".222222" stop-opacity=".27451"/><stop offset="1" stop-opacity="0"/></linearGradient><radialGradient id="b" cx="450.908936" cy="189.579361" gradientTransform="matrix(.00000013 -.0585994 -.105479 -.00000008 36.617281 47.696498)" gradientUnits="userSpaceOnUse" r="21.166656" xlink:href="#a"/><radialGradient id="c" cx="450.908936" cy="189.579361" gradientTransform="matrix(-.00000013 .0585994 .105479 .00000008 -12.802505 -5.645611)" gradientUnits="userSpaceOnUse" r="21.166656" xlink:href="#a"/><radialGradient id="d" cx="450.908936" cy="189.579361" gradientTransform="matrix(-.00000013 -.0585994 .105479 -.00000008 -12.802505 47.696498)" gradientUnits="userSpaceOnUse" r="21.166656" xlink:href="#a"/><radialGradient id="e" cx="450.908936" cy="189.579361" gradientTransform="matrix(.00000013 .0585994 -.105479 .00000008 36.61728 -5.645611)" gradientUnits="userSpaceOnUse" r="21.166656" xlink:href="#a"/><linearGradient id="f" gradientTransform="matrix(.200401 0 0 .0374615 -39.259497 12.477532)" gradientUnits="userSpaceOnUse" x1="255.322968" x2="255.323044" y1="228.178589" y2="254.666656"><stop offset="0" stop-opacity=".27451"/><stop offset="1" stop-opacity="0"/></linearGradient><linearGradient id="g" gradientUnits="userSpaceOnUse" x1="11.907393" x2="11.907393" y1="21.02545025" y2="11.10262278125"><stop offset="0" stop-color="#546e7a"/><stop offset="1" stop-color="#607d8b"/></linearGradient><linearGradient id="h" gradientUnits="userSpaceOnUse" x1="11.90736" x2="11.90736" y1="21.02539814717" y2="2.17207757661"><stop offset="0" stop-color="#bdbdbd"/><stop offset="1" stop-color="#eee"/></linearGradient><linearGradient id="i" gradientUnits="userSpaceOnUse" x1="11.907393" x2="11.907393" y1="21.02545025" y2="2.17207850005"><stop offset="0" stop-color="#9ccc65"/><stop offset="1" stop-color="#aed581"/></linearGradient><path d="m16.867188 21.027344h1.984374v-.996094h-1.984374zm0 0" fill="url(#b)"/><path d="m6.945312 21.027344h-1.984374v.992187h1.984374zm0 0" fill="url(#c)"/><path d="m6.945312 21.027344h-1.984374v-.996094h1.984374zm0 0" fill="url(#d)"/><path d="m16.867188 21.027344h1.984374v.992187h-1.984374zm0 0" fill="url(#e)"/><path d="m6.945312 21.027344h9.921876v.992187h-9.921876zm0 0" fill="url(#f)"/><path d="m5.953125 11.101562h11.90625c.550781 0 .992187.445313.992187.992188v7.9375c0 .550781-.441406.996094-.992187.996094h-11.90625c-.546875 0-.992187-.445313-.992187-.996094v-7.9375c0-.546875.445312-.992188.992187-.992188zm0 0" fill="url(#g)"/><path d="m11.90625 2.171875c-3.023438 0-5.457031 2.433594-5.457031 5.457031v3.472656h1.488281v-3.472656c0-2.199218 1.769531-3.96875 3.96875-3.96875s3.96875 1.769532 3.96875 3.96875v3.472656h1.488281v-3.472656c0-3.023437-2.433593-5.457031-5.457031-5.457031zm0 0" fill="url(#h)"/><path d="m11.90625 2.171875c-3.023438 0-5.457031 2.433594-5.457031 5.457031v3.472656h1.488281v-3.472656c0-2.199218 1.769531-3.96875 3.96875-3.96875s3.96875 1.769532 3.96875 3.96875v3.472656h1.488281v-3.472656c0-3.023437-2.433593-5.457031-5.457031-5.457031zm0 0" fill="#cfcfcf"/><path d="m11.90625 2.171875c-3.023438 0-5.457031 2.433594-5.457031 5.457031v.25c0-3.023437 2.433593-5.457031 5.457031-5.457031s5.457031 2.433594 5.457031 5.457031v-.25c0-3.023437-2.433593-5.457031-5.457031-5.457031zm0 0" fill="#fff" fill-opacity=".784314"/><path d="m11.90625 3.414062c-2.199219 0-3.96875 1.769532-3.96875 3.96875v.246094c0-2.199218 1.769531-3.96875 3.96875-3.96875s3.96875 1.769532 3.96875 3.96875v-.246094c0-2.199218-1.769531-3.96875-3.96875-3.96875zm-5.457031 7.441407v.246093h1.488281v-.246093zm9.425781 0v.246093h1.488281v-.246093zm0 0" fill-opacity=".235294"/><path d="m959.908384 175.101398c-243.756263 0-439.958009 196.201747-439.958009 439.958009v279.973279h119.988548v-279.973279c0-177.305912 142.663549-319.969461 319.969461-319.969461s319.969461 142.663549 319.969461 319.969461v279.973279h119.988548v-279.973279c0-243.756262-196.201746-439.958009-439.958009-439.958009zm0 0" fill="none" stroke="#212121" stroke-linecap="round" stroke-linejoin="round" stroke-width="11.338583" transform="scale(.0124035)"/><path d="m5.953125 21.027344c-.550781 0-.992187-.445313-.992187-.996094v-.496094c0 .550782.441406.996094.992187.996094h11.90625c.550781 0 .992187-.445312.992187-.996094v.496094c0 .550781-.441406.996094-.992187.996094zm0 0" fill-opacity=".235294"/><path d="m5.953125 11.101562c-.550781 0-.992187.445313-.992187.992188v.496094c0-.546875.441406-.992188.992187-.992188h11.90625c.550781 0 .992187.445313.992187.992188v-.496094c0-.546875-.441406-.992188-.992187-.992188zm0 0" fill="#fff" fill-opacity=".392157"/><path d="m5.953125 11.03125c-.585937 0-1.0625.476562-1.0625 1.0625v7.9375c0 .589844.476563 1.066406 1.0625 1.066406h11.90625c.589844 0 1.0625-.476562 1.0625-1.066406v-7.9375c0-.585938-.472656-1.0625-1.0625-1.0625zm0 .140625h11.90625c.515625 0 .921875.410156.921875.921875v7.9375c0 .515625-.40625.925781-.921875.925781h-11.90625c-.511719 0-.921875-.410156-.921875-.925781v-7.9375c0-.511719.410156-.921875.921875-.921875zm0 0" fill="#212121"/><path d="m18.90625 7.625c-.324219-.015625-.636719.128906-.832031.390625l-6.296875 8.09375-4.171875-3.757813c-.261719-.238281-.632813-.320312-.96875-.214843-.339844.109375-.59375.394531-.667969.742187-.070312.347656.050781.707032.316406.941406l4.960938 4.464844c.203125.183594.476562.273438.75.25.273437-.023437.523437-.160156.691406-.375l6.945312-8.933594c.230469-.289062.28125-.683593.128907-1.023437-.152344-.335937-.484375-.5625-.855469-.578125zm0 0" fill="url(#i)"/><path d="m18.90625 7.625c-.324219-.015625-.636719.128906-.832031.390625l-6.296875 8.09375-4.171875-3.757813c-.3125-.289062-.777344-.34375-1.148438-.132812-.375.207031-.570312.632812-.488281 1.050781.066406-.351562.320312-.640625.660156-.75.339844-.113281.714844-.03125.976563.210938l4.171875 3.753906 6.296875-8.089844c.195312-.261719.507812-.40625.832031-.394531.457031.023438.835938.351562.925781.800781.054688-.28125-.015625-.574219-.195312-.800781-.175781-.226562-.441407-.363281-.730469-.375zm0 0" fill="#fff" fill-opacity=".392157"/><path d="m18.148438 11.144531-5.460938 7.019531c-.167969.214844-.417969.351563-.691406.378907-.273438.023437-.546875-.066407-.75-.25l-4.960938-4.464844c-.121094-.109375-.214844-.246094-.273437-.394531-.144531.382812-.035157.816406.273437 1.085937l4.960938 4.464844c.203125.183594.476562.277344.75.25.273437-.023437.523437-.160156.691406-.375l5.835938-7.503906c-.105469-.097657-.234376-.167969-.375-.210938zm0 0" fill-opacity=".235294"/><path d="m403.294821-52.348866c-6.916007-.333301-13.582037 2.749738-17.748306 8.332538l-134.320506 172.650179-88.991502-80.159012c-5.5828-5.082848-13.498711-6.83268-20.664693-4.582895-7.249308 2.33311-12.665457 8.415863-14.248639 15.831821-1.499857 7.415959 1.08323 15.081893 6.749355 20.081416l105.823228 95.240905c4.33292 3.916292 10.165696 5.832776 15.998472 5.332824 5.832777-.499952 11.165601-3.416341 14.748592-7.999236l148.152519-190.565136c4.916197-6.166077 5.999427-14.58194 2.749737-21.831248-3.24969-7.165982-10.332347-11.998854-18.248257-12.332156zm0 0" fill="none" stroke="#212121" stroke-linecap="round" stroke-linejoin="round" stroke-width="3" transform="matrix(.0468795 0 0 .0468795 0 10.079087)"/></svg>

<?xml version="1.0" encoding="UTF-8"?>
<svg xmlns="http://www.w3.org/2000/svg" xmlns:xlink="http://www.w3.org/1999/xlink" width="24px" height="24px" viewBox="0 0 24 24" version="1.1">
<defs>
<radialGradient id="radial0" gradientUnits="userSpaceOnUse" cx="450.908936" cy="189.579361" fx="450.908936" fy="189.579361" r="21.166656" gradientTransform="matrix(0.000000130628,-0.0585994,-0.105479,-0.0000000761539,36.617281,47.696498)">
<stop offset="0" style="stop-color:rgb(0%,0%,0%);stop-opacity:0.313726;"/>
<stop offset="0.222222" style="stop-color:rgb(0%,0%,0%);stop-opacity:0.27451;"/>
<stop offset="1" style="stop-color:rgb(0%,0%,0%);stop-opacity:0;"/>
</radialGradient>
<radialGradient id="radial1" gradientUnits="userSpaceOnUse" cx="450.908936" cy="189.579361" fx="450.908936" fy="189.579361" r="21.166656" gradientTransform="matrix(-0.000000130628,0.0585994,0.105479,0.0000000761539,-12.802505,-5.645611)">
<stop offset="0" style="stop-color:rgb(0%,0%,0%);stop-opacity:0.313726;"/>
<stop offset="0.222222" style="stop-color:rgb(0%,0%,0%);stop-opacity:0.27451;"/>
<stop offset="1" style="stop-color:rgb(0%,0%,0%);stop-opacity:0;"/>
</radialGradient>
<radialGradient id="radial2" gradientUnits="userSpaceOnUse" cx="450.908936" cy="189.579361" fx="450.908936" fy="189.579361" r="21.166656" gradientTransform="matrix(-0.000000130628,-0.0585994,0.105479,-0.0000000761539,-12.802505,47.696498)">
<stop offset="0" style="stop-color:rgb(0%,0%,0%);stop-opacity:0.313726;"/>
<stop offset="0.222222" style="stop-color:rgb(0%,0%,0%);stop-opacity:0.27451;"/>
<stop offset="1" style="stop-color:rgb(0%,0%,0%);stop-opacity:0;"/>
</radialGradient>
<radialGradient id="radial3" gradientUnits="userSpaceOnUse" cx="450.908936" cy="189.579361" fx="450.908936" fy="189.579361" r="21.166656" gradientTransform="matrix(0.000000130628,0.0585994,-0.105479,0.0000000761539,36.61728,-5.645611)">
<stop offset="0" style="stop-color:rgb(0%,0%,0%);stop-opacity:0.313726;"/>
<stop offset="0.222222" style="stop-color:rgb(0%,0%,0%);stop-opacity:0.27451;"/>
<stop offset="1" style="stop-color:rgb(0%,0%,0%);stop-opacity:0;"/>
</radialGradient>
<linearGradient id="linear0" gradientUnits="userSpaceOnUse" x1="255.322968" y1="228.178589" x2="255.323044" y2="254.666656" gradientTransform="matrix(0.200401,0,0,0.0374615,-39.259497,12.477532)">
<stop offset="0" style="stop-color:rgb(0%,0%,0%);stop-opacity:0.27451;"/>
<stop offset="1" style="stop-color:rgb(0%,0%,0%);stop-opacity:0;"/>
</linearGradient>
<linearGradient id="linear1" gradientUnits="userSpaceOnUse" x1="254" y1="233.5" x2="254" y2="21.833334" gradientTransform="matrix(0.0468795,0,0,0.0468795,0,10.079087)">
<stop offset="0" style="stop-color:rgb(32.941177%,43.137255%,47.843137%);stop-opacity:1;"/>
<stop offset="1" style="stop-color:rgb(37.64706%,49.019608%,54.509807%);stop-opacity:1;"/>
</linearGradient>
<linearGradient id="linear2" gradientUnits="userSpaceOnUse" x1="960" y1="1695.118164" x2="960" y2="175.118118" gradientTransform="matrix(0.0124035,0,0,0.0124035,0,0.00000000000000141)">
<stop offset="0" style="stop-color:rgb(74.117649%,74.117649%,74.117649%);stop-opacity:1;"/>
<stop offset="1" style="stop-color:rgb(93.333334%,93.333334%,93.333334%);stop-opacity:1;"/>
</linearGradient>
<linearGradient id="linear3" gradientUnits="userSpaceOnUse" x1="254" y1="233.5" x2="254" y2="-168.666656" gradientTransform="matrix(0.0468795,0,0,0.0468795,0,10.079087)">
<stop offset="0" style="stop-color:rgb(61.176473%,80.000001%,39.607844%);stop-opacity:1;"/>
<stop offset="1" style="stop-color:rgb(68.235296%,83.529413%,50.588238%);stop-opacity:1;"/>
</linearGradient>
</defs>
<g id="surface1">
<path style=" stroke:none;fill-rule:nonzero;fill:url(#radial0);" d="M 16.867188 21.027344 L 18.851562 21.027344 L 18.851562 20.03125 L 16.867188 20.03125 Z M 16.867188 21.027344 "/>
<path style=" stroke:none;fill-rule:nonzero;fill:url(#radial1);" d="M 6.945312 21.027344 L 4.960938 21.027344 L 4.960938 22.019531 L 6.945312 22.019531 Z M 6.945312 21.027344 "/>
<path style=" stroke:none;fill-rule:nonzero;fill:url(#radial2);" d="M 6.945312 21.027344 L 4.960938 21.027344 L 4.960938 20.03125 L 6.945312 20.03125 Z M 6.945312 21.027344 "/>
<path style=" stroke:none;fill-rule:nonzero;fill:url(#radial3);" d="M 16.867188 21.027344 L 18.851562 21.027344 L 18.851562 22.019531 L 16.867188 22.019531 Z M 16.867188 21.027344 "/>
<path style=" stroke:none;fill-rule:nonzero;fill:url(#linear0);" d="M 6.945312 21.027344 L 16.867188 21.027344 L 16.867188 22.019531 L 6.945312 22.019531 Z M 6.945312 21.027344 "/>
<path style=" stroke:none;fill-rule:nonzero;fill:url(#linear1);" d="M 5.953125 11.101562 L 17.859375 11.101562 C 18.410156 11.101562 18.851562 11.546875 18.851562 12.09375 L 18.851562 20.03125 C 18.851562 20.582031 18.410156 21.027344 17.859375 21.027344 L 5.953125 21.027344 C 5.40625 21.027344 4.960938 20.582031 4.960938 20.03125 L 4.960938 12.09375 C 4.960938 11.546875 5.40625 11.101562 5.953125 11.101562 Z M 5.953125 11.101562 "/>
<path style=" stroke:none;fill-rule:nonzero;fill:url(#linear2);" d="M 11.90625 2.171875 C 8.882812 2.171875 6.449219 4.605469 6.449219 7.628906 L 6.449219 11.101562 L 7.9375 11.101562 L 7.9375 7.628906 C 7.9375 5.429688 9.707031 3.660156 11.90625 3.660156 C 14.105469 3.660156 15.875 5.429688 15.875 7.628906 L 15.875 11.101562 L 17.363281 11.101562 L 17.363281 7.628906 C 17.363281 4.605469 14.929688 2.171875 11.90625 2.171875 Z M 11.90625 2.171875 "/>
<path style=" stroke:none;fill-rule:nonzero;fill:rgb(81.176472%,81.176472%,81.176472%);fill-opacity:1;" d="M 11.90625 2.171875 C 8.882812 2.171875 6.449219 4.605469 6.449219 7.628906 L 6.449219 11.101562 L 7.9375 11.101562 L 7.9375 7.628906 C 7.9375 5.429688 9.707031 3.660156 11.90625 3.660156 C 14.105469 3.660156 15.875 5.429688 15.875 7.628906 L 15.875 11.101562 L 17.363281 11.101562 L 17.363281 7.628906 C 17.363281 4.605469 14.929688 2.171875 11.90625 2.171875 Z M 11.90625 2.171875 "/>
<path style=" stroke:none;fill-rule:nonzero;fill:rgb(100%,100%,100%);fill-opacity:0.784314;" d="M 11.90625 2.171875 C 8.882812 2.171875 6.449219 4.605469 6.449219 7.628906 L 6.449219 7.878906 C 6.449219 4.855469 8.882812 2.421875 11.90625 2.421875 C 14.929688 2.421875 17.363281 4.855469 17.363281 7.878906 L 17.363281 7.628906 C 17.363281 4.605469 14.929688 2.171875 11.90625 2.171875 Z M 11.90625 2.171875 "/>
<path style=" stroke:none;fill-rule:nonzero;fill:rgb(0%,0%,0%);fill-opacity:0.235294;" d="M 11.90625 3.414062 C 9.707031 3.414062 7.9375 5.183594 7.9375 7.382812 L 7.9375 7.628906 C 7.9375 5.429688 9.707031 3.660156 11.90625 3.660156 C 14.105469 3.660156 15.875 5.429688 15.875 7.628906 L 15.875 7.382812 C 15.875 5.183594 14.105469 3.414062 11.90625 3.414062 Z M 6.449219 10.855469 L 6.449219 11.101562 L 7.9375 11.101562 L 7.9375 10.855469 Z M 15.875 10.855469 L 15.875 11.101562 L 17.363281 11.101562 L 17.363281 10.855469 Z M 15.875 10.855469 "/>
<path style="fill:none;stroke-width:11.338583;stroke-linecap:round;stroke-linejoin:round;stroke:rgb(12.941177%,12.941177%,12.941177%);stroke-opacity:1;stroke-miterlimit:4;" d="M 959.908384 175.101398 C 716.152121 175.101398 519.950375 371.303145 519.950375 615.059407 L 519.950375 895.032686 L 639.938923 895.032686 L 639.938923 615.059407 C 639.938923 437.753495 782.602472 295.089946 959.908384 295.089946 C 1137.214296 295.089946 1279.877845 437.753495 1279.877845 615.059407 L 1279.877845 895.032686 L 1399.866393 895.032686 L 1399.866393 615.059407 C 1399.866393 371.303145 1203.664647 175.101398 959.908384 175.101398 Z M 959.908384 175.101398 " transform="matrix(0.0124035,0,0,0.0124035,0,0)"/>
<path style=" stroke:none;fill-rule:nonzero;fill:rgb(0%,0%,0%);fill-opacity:0.235294;" d="M 5.953125 21.027344 C 5.402344 21.027344 4.960938 20.582031 4.960938 20.03125 L 4.960938 19.535156 C 4.960938 20.085938 5.402344 20.53125 5.953125 20.53125 L 17.859375 20.53125 C 18.410156 20.53125 18.851562 20.085938 18.851562 19.535156 L 18.851562 20.03125 C 18.851562 20.582031 18.410156 21.027344 17.859375 21.027344 Z M 5.953125 21.027344 "/>
<path style=" stroke:none;fill-rule:nonzero;fill:rgb(100%,100%,100%);fill-opacity:0.392157;" d="M 5.953125 11.101562 C 5.402344 11.101562 4.960938 11.546875 4.960938 12.09375 L 4.960938 12.589844 C 4.960938 12.042969 5.402344 11.597656 5.953125 11.597656 L 17.859375 11.597656 C 18.410156 11.597656 18.851562 12.042969 18.851562 12.589844 L 18.851562 12.09375 C 18.851562 11.546875 18.410156 11.101562 17.859375 11.101562 Z M 5.953125 11.101562 "/>
<path style=" stroke:none;fill-rule:nonzero;fill:rgb(12.941177%,12.941177%,12.941177%);fill-opacity:1;" d="M 5.953125 11.03125 C 5.367188 11.03125 4.890625 11.507812 4.890625 12.09375 L 4.890625 20.03125 C 4.890625 20.621094 5.367188 21.097656 5.953125 21.097656 L 17.859375 21.097656 C 18.449219 21.097656 18.921875 20.621094 18.921875 20.03125 L 18.921875 12.09375 C 18.921875 11.507812 18.449219 11.03125 17.859375 11.03125 Z M 5.953125 11.171875 L 17.859375 11.171875 C 18.375 11.171875 18.78125 11.582031 18.78125 12.09375 L 18.78125 20.03125 C 18.78125 20.546875 18.375 20.957031 17.859375 20.957031 L 5.953125 20.957031 C 5.441406 20.957031 5.03125 20.546875 5.03125 20.03125 L 5.03125 12.09375 C 5.03125 11.582031 5.441406 11.171875 5.953125 11.171875 Z M 5.953125 11.171875 "/>
<path style=" stroke:none;fill-rule:nonzero;fill:url(#linear3);" d="M 18.90625 7.625 C 18.582031 7.609375 18.269531 7.753906 18.074219 8.015625 L 11.777344 16.109375 L 7.605469 12.351562 C 7.34375 12.113281 6.972656 12.03125 6.636719 12.136719 C 6.296875 12.246094 6.042969 12.53125 5.96875 12.878906 C 5.898438 13.226562 6.019531 13.585938 6.285156 13.820312 L 11.246094 18.285156 C 11.449219 18.46875 11.722656 18.558594 11.996094 18.535156 C 12.269531 18.511719 12.519531 18.375 12.6875 18.160156 L 19.632812 9.226562 C 19.863281 8.9375 19.914062 8.542969 19.761719 8.203125 C 19.609375 7.867188 19.277344 7.640625 18.90625 7.625 Z M 18.90625 7.625 "/>
<path style=" stroke:none;fill-rule:nonzero;fill:rgb(100%,100%,100%);fill-opacity:0.392157;" d="M 18.90625 7.625 C 18.582031 7.609375 18.269531 7.753906 18.074219 8.015625 L 11.777344 16.109375 L 7.605469 12.351562 C 7.292969 12.0625 6.828125 12.007812 6.457031 12.21875 C 6.082031 12.425781 5.886719 12.851562 5.96875 13.269531 C 6.035156 12.917969 6.289062 12.628906 6.628906 12.519531 C 6.96875 12.40625 7.34375 12.488281 7.605469 12.730469 L 11.777344 16.484375 L 18.074219 8.394531 C 18.269531 8.132812 18.582031 7.988281 18.90625 8 C 19.363281 8.023438 19.742188 8.351562 19.832031 8.800781 C 19.886719 8.519531 19.816406 8.226562 19.636719 8 C 19.460938 7.773438 19.195312 7.636719 18.90625 7.625 Z M 18.90625 7.625 "/>
<path style=" stroke:none;fill-rule:nonzero;fill:rgb(0%,0%,0%);fill-opacity:0.235294;" d="M 18.148438 11.144531 L 12.6875 18.164062 C 12.519531 18.378906 12.269531 18.515625 11.996094 18.542969 C 11.722656 18.566406 11.449219 18.476562 11.246094 18.292969 L 6.285156 13.828125 C 6.164062 13.71875 6.070312 13.582031 6.011719 13.433594 C 5.867188 13.816406 5.976562 14.25 6.285156 14.519531 L 11.246094 18.984375 C 11.449219 19.167969 11.722656 19.261719 11.996094 19.234375 C 12.269531 19.210938 12.519531 19.074219 12.6875 18.859375 L 18.523438 11.355469 C 18.417969 11.257812 18.289062 11.1875 18.148438 11.144531 Z M 18.148438 11.144531 "/>
<path style="fill:none;stroke-width:3;stroke-linecap:round;stroke-linejoin:round;stroke:rgb(12.941177%,12.941177%,12.941177%);stroke-opacity:1;stroke-miterlimit:4;" d="M 403.294821 -52.348866 C 396.378814 -52.682167 389.712784 -49.599128 385.546515 -44.016328 L 251.226009 128.633851 L 162.234507 48.474839 C 156.651707 43.391991 148.735796 41.642159 141.569814 43.891944 C 134.320506 46.225054 128.904357 52.307807 127.321175 59.723765 C 125.821318 67.139724 128.404405 74.805658 134.07053 79.805181 L 239.893758 175.046086 C 244.226678 178.962378 250.059454 180.878862 255.89223 180.37891 C 261.725007 179.878958 267.057831 176.962569 270.640822 172.379674 L 418.793341 -18.185462 C 423.709538 -24.351539 424.792768 -32.767402 421.543078 -40.01671 C 418.293388 -47.182692 411.210731 -52.015564 403.294821 -52.348866 Z M 403.294821 -52.348866 " transform="matrix(0.0468795,0,0,0.0468795,0,10.079087)"/>
</g>
</svg>
